svg/Filled/dice_filled.svg

<svg viewBox="0 0 24 24" xmlns="http://www.w3.org/2000/svg" width="24" height="24"><path fill-rule="evenodd" d="M8.29 10.9a8 8 0 0 1 1.5.97 4 4 0 0 1 1.22 2.1c.1.43.1.88.1 1.8v6.25c0 .45-.43.78-.83.58l-.23-.12-6.15-3.55a3.9 3.9 0 0 1-1.95-3.38v-7.1c0-.59.65-.85 1.15-.56zm-3.73 3.59c-.42 0-.77.52-.77 1.16s.35 1.15.77 1.15.77-.51.77-1.15-.34-1.16-.77-1.16m3.63-.54c-.42 0-.77.52-.77 1.16s.35 1.15.77 1.15.77-.51.77-1.15-.34-1.16-.77-1.16M20.92 7.9c.5-.28 1.13-.02 1.13.55v7.1a3.9 3.9 0 0 1-1.95 3.38l-6.15 3.55c-.5.3-1.05-.14-1.05-.72v-5.99c0-.9 0-1.36.09-1.78a4 4 0 0 1 1.23-2.12c.32-.29.7-.52 1.5-.97zm-5.1 9.29c-.43 0-.78.52-.78 1.16s.35 1.15.77 1.15.77-.51.77-1.15-.34-1.16-.77-1.16m3.62-2.7c-.43 0-.77.52-.77 1.16s.34 1.15.77 1.15c.42 0 .77-.51.77-1.15s-.35-1.16-.77-1.16m-3.63-.54c-.42 0-.77.52-.77 1.16s.35 1.15.77 1.15.77-.51.77-1.15-.34-1.16-.77-1.16m3.63-2.55c-.43 0-.77.52-.77 1.16s.34 1.15.77 1.15c.42 0 .77-.51.77-1.15s-.35-1.16-.77-1.16m-9.15-10a3.9 3.9 0 0 1 3.67.12l6.15 3.55.22.14c.38.25.3.8-.1 1.02l-5.4 3.11a9 9 0 0 1-1.6.81 4 4 0 0 1-2.44 0c-.4-.13-.8-.36-1.59-.81L4 6.33c-.5-.29-.59-.97-.1-1.26l6.16-3.55zM12 4.9c-.64 0-1.16.34-1.16.76 0 .43.52.77 1.16.77s1.16-.34 1.16-.77c0-.42-.52-.77-1.16-.77" clip-rule="evenodd"/></svg>

<svg viewBox="0 0 24 24" xmlns="http://www.w3.org/2000/svg" width="24" height="24"><path fill-rule="evenodd" d="M8.29 10.9A8 8 0 0 1 9.79 11.87A4 4 0 0 1 11.01 13.97C11.11 14.4 11.11 14.85 11.11 15.77L11.11 22.02C11.11 22.47 10.68 22.8 10.28 22.6L3.9 18.93A3.9 3.9 0 0 1 1.95 15.55L1.95 8.45C1.95 7.86 2.6 7.6 3.1 7.89ZM4.56 14.49c-.42 0-.77.52-.77 1.16s.35 1.15.77 1.15.77-.51.77-1.15-.34-1.16-.77-1.16m3.63-.54c-.42 0-.77.52-.77 1.16s.35 1.15.77 1.15.77-.51.77-1.15-.34-1.16-.77-1.16M20.92 7.9c.5-.28 1.13-.02 1.13.55v7.1a3.9 3.9 0 0 1-1.95 3.38l-6.15 3.55c-.5.3-1.05-.14-1.05-.72v-5.99c0-.9 0-1.36.09-1.78a4 4 0 0 1 1.23-2.12c.32-.29.7-.52 1.5-.97zm-5.1 9.29c-.43 0-.78.52-.78 1.16s.35 1.15.77 1.15.77-.51.77-1.15-.34-1.16-.77-1.16m3.62-2.7c-.43 0-.77.52-.77 1.16s.34 1.15.77 1.15c.42 0 .77-.51.77-1.15s-.35-1.16-.77-1.16m-3.63-.54c-.42 0-.77.52-.77 1.16s.35 1.15.77 1.15.77-.51.77-1.15-.34-1.16-.77-1.16m3.63-2.55c-.43 0-.77.52-.77 1.16s.34 1.15.77 1.15c.42 0 .77-.51.77-1.15s-.35-1.16-.77-1.16M10.28 1.4A3.9 3.9 0 0 1 13.95 1.52L20.32 5.21C20.7 5.46 20.62 6.01 20.22 6.23L14.82 9.34A9 9 0 0 1 13.22 10.15A4 4 0 0 1 10.78 10.15C10.38 10.02 9.98 9.79 9.19 9.34L4 6.33C3.5 6.04 3.41 5.36 3.9 5.07L10.06 1.52ZM12 4.9c-.64 0-1.16.34-1.16.76 0 .43.52.77 1.16.77s1.16-.34 1.16-.77c0-.42-.52-.77-1.16-.77" clip-rule="evenodd"/></svg>
